projects/elements/src/icon/icons/dropper.svg

<svg width="17" height="16" viewBox="0 0 17 16" fill="none" xmlns="http://www.w3.org/2000/svg">
<path d="M1.72048 5.77562C2.16838 5.3277 2.16838 4.60148 1.72048 4.15356L0.503912 2.93701C-0.167971 2.26513 -0.167971 1.17578 0.503912 0.503912C1.1758 -0.167971 2.26514 -0.167971 2.93702 0.503912L4.15357 1.72046C4.6015 2.16838 5.32772 2.16838 5.77564 1.72046C6.22356 1.27254 6.94979 1.27254 7.39771 1.72046L7.88432 2.20707C8.0635 2.38625 8.0635 2.67674 7.88432 2.8559L2.85591 7.88432C2.67675 8.06348 2.38626 8.06348 2.20708 7.88432L1.72048 7.3977C1.27255 6.94978 1.27255 6.22355 1.72048 5.77562Z" fill="#818996"/>
<path d="M5.52614 7.95923C5.30218 7.73527 5.30218 7.37215 5.52614 7.14819L7.1482 5.52612C7.37216 5.30217 7.73528 5.30217 7.95924 5.52612L14.0421 11.6089C14.4092 11.9761 14.6154 12.4741 14.6154 12.9934V13.2335C14.6154 13.5991 14.7607 13.9496 15.0192 14.2082L15.8321 15.021C16.056 15.2449 16.056 15.6081 15.8321 15.832C15.6081 16.056 15.245 16.056 15.021 15.832L14.2082 15.0192C13.9497 14.7607 13.5991 14.6155 13.2336 14.6155H12.9934C12.4742 14.6155 11.9762 14.4092 11.6089 14.042L5.52614 7.95923Z" fill="#818996"/>
</svg>

<svg xmlns="http://www.w3.org/2000/svg" width="17" height="16" fill="none"><path fill="currentColor" d="M1.72 5.776a1.147 1.147 0 0 0 0-1.622L.504 2.937A1.72 1.72 0 1 1 2.937.504L4.154 1.72a1.147 1.147 0 0 0 1.622 0 1.147 1.147 0 0 1 1.622 0l.486.487c.18.18.18.47 0 .649L2.856 7.884c-.18.18-.47.18-.649 0l-.487-.486a1.147 1.147 0 0 1 0-1.622ZM5.526 7.96a.573.573 0 0 1 0-.812l1.622-1.622a.574.574 0 0 1 .811 0l6.083 6.083c.367.367.573.865.573 1.384v.24c0 .366.146.717.404.975l.813.813a.574.574 0 0 1-.811.811l-.813-.813a1.378 1.378 0 0 0-.974-.403h-.24c-.52 0-1.018-.207-1.385-.574L5.526 7.959Z"/></svg>
